documentation/set_heap_entry.svg

<svg xmlns="http://www.w3.org/2000/svg" width="127.60000000000001" height="114.4"><g transform="scale(2, 2)"><filter id="dropshadow" height="130%">   <feGaussianBlur in="SourceAlpha" stdDeviation="3"/>   <feOffset dx="2" dy="2" result="offsetblur"/>   <feComponentTransfer xmlns="http://www.w3.org/2000/svg">     <feFuncA type="linear" slope="0.2"/>   </feComponentTransfer>   <feMerge>     <feMergeNode/>     <feMergeNode in="SourceGraphic"/>   </feMerge> </filter><path d="m0.5 8.5 L 0.5 4.5 A 4 4 90 0 1 4.5 0.5 L 8.5 0.5 L 8.5 2.5 L 18.5 2.5 L 18.5 0.5 L 48.5 0.5 L 52.5 0.5 A 4 4 90 0 1 56.5 4.5 L 56.5 8.5 L 52.5 8.5 L 52.5 5.5 L 48.5 5.5 L 48.5 15.5 L 52.5 15.5 L 52.5 12.5 L 56.5 12.5 L 56.5 29.5 L 52.5 29.5 L 52.5 26.5 L 48.5 26.5 L 48.5 36.5 L 52.5 36.5 L 52.5 33.5 L 56.5 33.5 L 56.5 37.5 A 4 4 90 0 1 52.5 41.5 L 48.5 41.5 L 18.5 41.5 L 17.5 41.5 L 17.5 43.5 L 9.5 43.5 L 9.5 41.5 L 8.5 41.5 L 4.5 41.5 A 4 4 90 0 1 0.5 37.5 L 0.5 33.5 L 0.5 12.5 L 0.5 8.5 z" style="fill:#dd7f00;fill-opacity:1;stroke:#955100;stroke-width:1;stroke-linecap:round;stroke-opacity:1;filter:url(#dropshadow);" /><text style="font-size:10px;fill:#000000;font-family:Sans;text-anchor:end"><tspan x="47" y="24.5">set heap</tspan></text><text style="font-size:6.666666666666667px;fill:#000000;font-family:Sans;text-anchor:end"><tspan x="47" y="11.25">index</tspan></text><text style="font-size:6.666666666666667px;fill:#000000;font-family:Sans;text-anchor:end"><tspan x="47" y="32.25">value</tspan></text></g></svg>

<?xml version="1.0" encoding="UTF-8" standalone="no"?>
<!-- Created with Inkscape (http://www.inkscape.org/) -->

<svg
   xmlns:dc="http://purl.org/dc/elements/1.1/"
   xmlns:cc="http://creativecommons.org/ns#"
   xmlns:rdf="http://www.w3.org/1999/02/22-rdf-syntax-ns#"
   xmlns:svg="http://www.w3.org/2000/svg"
   xmlns="http://www.w3.org/2000/svg"
   version="1.1"
   width="114"
   height="88"
   id="svg3218">
  <metadata
     id="metadata3255">
    <rdf:RDF>
      <cc:Work
         rdf:about="">
        <dc:format>image/svg+xml</dc:format>
        <dc:type
           rdf:resource="http://purl.org/dc/dcmitype/StillImage" />
        <dc:title></dc:title>
      </cc:Work>
    </rdf:RDF>
  </metadata>
  <defs
     id="defs3253" />
  <g
     transform="scale(2,2)"
     id="g3220">
    <filter
       height="1.3"
       color-interpolation-filters="sRGB"
       id="dropshadow">
      <feGaussianBlur
         id="feGaussianBlur3223"
         stdDeviation="3"
         in="SourceAlpha" />
      <feOffset
         id="feOffset3225"
         result="offsetblur"
         dy="2"
         dx="2" />
      <feComponentTransfer
         id="feComponentTransfer3227">
        <feFuncA
           id="feFuncA3229"
           slope="0.2"
           type="linear" />
      </feComponentTransfer>
      <feMerge
         id="feMerge3231">
        <feMergeNode
           id="feMergeNode3233" />
        <feMergeNode
           id="feMergeNode3235"
           in="SourceGraphic" />
      </feMerge>
    </filter>
    <path
       d="m 0.5,8.5 0,-4 a 4,4 90 0 1 4,-4 l 4,0 0,2 10,0 0,-2 30,0 4,0 a 4,4 90 0 1 4,4 l 0,4 -4,0 0,-3 -4,0 0,10 4,0 0,-3 4,0 0,17 -4,0 0,-3 -4,0 0,10 4,0 0,-3 4,0 0,4 a 4,4 90 0 1 -4,4 l -4,0 -30,0 -1,0 0,2 -8,0 0,-2 -1,0 -4,0 a 4,4 90 0 1 -4,-4 l 0,-4 0,-21 0,-4 z"
       id="path3237"
       style="fill:#dd7f00;fill-opacity:1;stroke:#955100;stroke-width:1;stroke-linecap:round;stroke-opacity:1" />
    <text
       id="text3239"
       style="font-size:10px;text-anchor:end;fill:#000000;font-family:Sans">
      <tspan
         x="47"
         y="24.5"
         id="tspan3241">set heap</tspan>
    </text>
    <text
       id="text3243"
       style="font-size:6.66666651px;text-anchor:end;fill:#000000;font-family:Sans">
      <tspan
         x="47"
         y="11.25"
         id="tspan3245">index</tspan>
    </text>
    <text
       id="text3247"
       style="font-size:6.66666651px;text-anchor:end;fill:#000000;font-family:Sans">
      <tspan
         x="47"
         y="32.25"
         id="tspan3249">value</tspan>
    </text>
  </g>
</svg>
